X:1
T:Jimmy Linn's -- Hornpipe
Z:Bob Puckette <bpuckette:msn.com> 2003-3-10
R:hornpipe
C:Jimmy Linn
B:Cole's 1000 Fiddle Tunes
M:C|
L:1/8
K:Bb
(udc)|B>bf>d g>ec>A|B>dF>B D>FB>F|B>dg>f e>dc>B|\
((3ABc) ((3BAG) ((3FGF) ((3EDC)|
B,>fd>B g>ec>A|B>dF>B D>FB>F|E>gf>e d>Bc>A|B2b2B2:|
|:(uga)|b>Bd>f g>Be>g|((3fgf) ((3edc) B>AG>F|\
E>Gc>d e>dc>B|((3ABc) ((3BAG) F2 (fa)|
b>Bd>f g>Be>g|f>Bd>f e>FA>c|B>gf>e d>Bc>A|B2b2B2:|
